X: 3289
M: 6/8
L: 1/8
K: A
e |\
cAA A2G | Acd eag | edc e2d | cGG G2e |\
cAA A2G | Acd eag | ega ged | cAA A2 :|
|: g |\
gag gec | deg a2a | ged ced | BGG G2e |\


